assets/svg/illustration-find-space.svg

<svg width="201" height="161" viewBox="0 0 201 161" fill="none" xmlns="http://www.w3.org/2000/svg">
<path d="M158.356 82.1165H118.922H44.3828C43.5218 82.1165 42.7574 82.6675 42.4853 83.4844L19.4645 152.602C19.0332 153.897 19.9971 155.234 21.362 155.234H179.536C180.88 155.234 181.842 153.934 181.448 152.648L160.269 83.5305C160.011 82.6902 159.235 82.1165 158.356 82.1165Z" stroke="#0B6AB7" stroke-width="1.5"/>
<path d="M101.572 87.7781L138.07 96.3407L153.188 117.013L138.07 137.685L101.572 146.248L65.0732 137.685L49.9551 117.013L65.0732 96.3407L101.572 87.7781Z" stroke="#0B6AB7" stroke-width="1.5"/>
<path d="M101.571 91.0981L133.926 98.6887L147.328 117.014L133.926 135.339L101.571 142.93L69.2162 135.339L55.8145 117.014L69.2162 98.6887L101.571 91.0981Z" stroke="#00E0E0" stroke-width="1.5"/>
<mask id="path-4-inside-1" fill="white">
<path d="M137.54 40.2395C137.54 59.5725 121.55 83.9965 102.535 99.3114C83.52 83.9965 67.5293 59.5725 67.5293 40.2395C67.5293 20.9064 83.2018 5.23389 102.535 5.23389C121.868 5.23389 137.54 20.9064 137.54 40.2395Z"/>
</mask>
<path d="M137.54 40.2395C137.54 59.5725 121.55 83.9965 102.535 99.3114C83.52 83.9965 67.5293 59.5725 67.5293 40.2395C67.5293 20.9064 83.2018 5.23389 102.535 5.23389C121.868 5.23389 137.54 20.9064 137.54 40.2395Z" fill="white"/>
<path d="M102.535 99.3114L101.594 100.48L102.535 101.237L103.476 100.48L102.535 99.3114ZM136.04 40.2395C136.04 49.526 132.185 60.1905 125.888 70.5004C119.604 80.7887 110.968 90.593 101.594 98.1432L103.476 100.48C113.116 92.7148 121.983 82.6498 128.448 72.0641C134.901 61.5 139.04 50.286 139.04 40.2395H136.04ZM103.476 98.1432C94.1016 90.593 85.4654 80.7887 79.1816 70.5004C72.8847 60.1905 69.0293 49.526 69.0293 40.2395H66.0293C66.0293 50.286 70.1692 61.5 76.6214 72.0641C83.0868 82.6498 91.9533 92.7148 101.594 100.48L103.476 98.1432ZM69.0293 40.2395C69.0293 21.7348 84.0303 6.73389 102.535 6.73389V3.73389C82.3734 3.73389 66.0293 20.078 66.0293 40.2395H69.0293ZM102.535 6.73389C121.04 6.73389 136.04 21.7348 136.04 40.2395H139.04C139.04 20.078 122.696 3.73389 102.535 3.73389V6.73389Z" fill="#0B6AB7" mask="url(#path-4-inside-1)"/>
<ellipse cx="102.535" cy="40.9109" rx="13.9526" ry="13.9526" fill="#0AA5FF"/>
<path d="M140.509 94.4245L153.601 88.1511M147.328 137.52L169.148 149.248M56.5007 137.52L29.498 151.43M60.8647 94.4245L47.4998 88.1511M156.601 116.79H163.42M47.4998 116.79H37.1352" stroke="#FFD600" stroke-width="1.5"/>
</svg>

<svg width="201" height="161" viewBox="0 0 201 161" fill="none" xmlns="http://www.w3.org/2000/svg">
  <path d="M158.356 82.117H44.382a2 2 0 0 0-1.897 1.367l-23.02 69.118a2 2 0 0 0 1.897 2.632h158.174a2 2 0 0 0 1.912-2.586l-21.179-69.117a2.001 2.001 0 0 0-1.913-1.415z" stroke="#0B6AB7" stroke-width="1.5"/>
  <path d="m101.572 87.778 36.498 8.563 15.118 20.672-15.118 20.672-36.498 8.563-36.499-8.563-15.118-20.672 15.118-20.672 36.499-8.563z" stroke="#0B6AB7" stroke-width="1.5"/>
  <path d="m101.571 91.098 32.355 7.59 13.402 18.326-13.402 18.325-32.355 7.591-32.355-7.591-13.401-18.325 13.401-18.325 32.355-7.59z" stroke="#00E0E0" stroke-width="1.5"/>
  <path d="M137.54 40.24c0 19.332-15.99 43.756-35.005 59.071C83.52 83.996 67.529 59.572 67.529 40.24c0-19.333 15.673-35.005 35.006-35.005S137.54 20.907 137.54 40.24z"/>
  <path d="M137.54 40.24c0 19.332-15.99 43.756-35.005 59.071C83.52 83.996 67.529 59.572 67.529 40.24c0-19.333 15.673-35.005 35.006-35.005S137.54 20.907 137.54 40.24z" fill="#fff"/>
  <path d="m102.535 99.311-.941 1.169.941.757.941-.757-.941-1.169zM136.04 40.24c0 9.287-3.855 19.952-10.152 30.261-6.284 10.289-14.92 20.093-24.294 27.643l1.882 2.337c9.64-7.765 18.507-17.83 24.972-28.416C134.901 61.5 139.04 50.286 139.04 40.24h-3zm-32.564 57.904c-9.374-7.55-18.01-17.354-24.294-27.643-6.297-10.31-10.153-20.974-10.153-30.26h-3c0 10.046 4.14 21.26 10.592 31.824 6.466 10.586 15.332 20.65 24.973 28.416l1.882-2.337zM69.029 40.24c0-18.504 15.001-33.505 33.506-33.505v-3c-20.162 0-36.506 16.344-36.506 36.505h3zm33.506-33.505c18.505 0 33.505 15 33.505 33.505h3c0-20.161-16.344-36.505-36.505-36.505v3z" fill="#0B6AB7"/>
  <circle cx="102.535" cy="40.911" fill="#0AA5FF" r="13.953"/>
  <path d="m140.509 94.424 13.092-6.273m-6.273 49.369 21.82 11.728M56.501 137.52l-27.003 13.91m31.367-57.006L47.5 88.151m109.1 28.639h6.819m-115.92 0H37.135" stroke="#FFD600" stroke-width="1.5"/>
</svg>
